src/components/assets/subscribe-background.svg

<svg fill="none" height="463" viewBox="0 0 1440 463" width="1440" xmlns="http://www.w3.org/2000/svg" xmlns:xlink="http://www.w3.org/1999/xlink"><linearGradient id="a" gradientUnits="userSpaceOnUse" x1="1440" x2="979.358" y1="76.1899" y2="915.198"><stop offset="0" stop-color="#ffb36d"/><stop offset="1" stop-color="#f88"/></linearGradient><linearGradient id="b" gradientUnits="userSpaceOnUse" x1="731.407" x2="731.407" y1="142" y2="562.16"><stop offset="0" stop-color="#fff"/><stop offset="1" stop-color="#fff" stop-opacity="0"/></linearGradient><mask id="c" height="463" maskUnits="userSpaceOnUse" width="1440" x="0" y="0"><path d="m0 0h1440v463h-1440z" fill="url(#a)"/></mask><path d="m0 0h1440v463h-1440z" fill="url(#a)"/><g mask="url(#c)"><g opacity=".7"><path d="m465.356 538.105.354 1.622c1.656 7.787 3.037 15.264 4.142 22.433-42.051-27.149-78.771-61.781-108.264-101.998 7.152-.713 13.643-1.737 19.483-3.071 23.847 31.01 52.28 58.347 84.285 81.014zm226.837-724.849c225.892 0 409.037 182.2659 409.037 407.128 0 90.204-29.47 173.553-79.35 241.031l-7.62-19.251c43.86-62.952 69.56-139.381 69.56-221.78 0-215.21951-175.325-389.711-391.627-389.711-47.609 0-93.232 8.453-135.438 23.934l-19.244-11.233c47.719-19.416 99.945-30.118 154.682-30.118z" fill="url(#b)" fill-opacity=".21"/><g fill="#fff"><path d="m333.217 207.014 56.093 149.308c15.953 2.744 25.773 6.485 25.773 10.609v.051c.408 1.81.375 3.793-.098 5.948l.098.002-.313.878c-.433 1.611-1.102 3.314-2.007 5.109-14.862 35.096-47.73 59.858-88.181 59.858-39.856 0-73.882-24.04-89.245-58.315-1.316-2.469-2.238-4.75-2.77-6.846-.08-.224-.162-.454-.244-.684l.082-.003c-.417-1.922-.492-3.682-.226-5.281l.144-.717.017-.293c.471-4.167 10.968-7.924 27.636-10.63l55.971-148.994c2.693-7.228 14.558-7.228 17.27 0zm295.897-.019 56.08 149.274c15.209 2.59 24.921 6.082 25.988 9.95l-.101-.202.23.487c.774 1.85.858 3.985.251 6.406l.001.004c-.321 1.264-.819 2.589-1.5 3.989-14.484 36.167-48.37 61.856-89.584 61.856-40.771 0-75.44-25.156-90.273-60.69-.883-1.739-1.586-3.409-1.945-4.975l-.034-.161c-.002-.006-.005-.013-.007-.019l.003-.004-.072-.401c-.213-1.415-.123-3.185.272-5.311l.117-.591.017-.103.037-.192c.96-4.009 11.208-7.62 27.253-10.25l55.996-149.067c2.694-7.227 14.559-7.227 17.271 0zm-100.514 159.317-.043.192h.004zm-204.018-129.777-43.936 116.95c12.829-1.145 27.489-1.794 43.057-1.794l1.757.003c15.655.049 30.347.755 43.127 1.959zm295.897 0-43.95 116.978c12.904-1.162 27.675-1.822 43.371-1.822l1.757.003c15.527.048 30.108.743 42.815 1.929zm-146.652-202.7093s21.884 68.5323 21.884 80.6713c0 8.358-4.834 15.419-11.717 19.125 5.665 1.835 10.647 5.059 14.54 9.377 8.691-7.561 21.496-14.584 39.874-14.584 21.017 0 39.081 9.173 55.023 17.272 5.075 2.575 10.001 5.04 14.559 6.968 3.395-3.596 8.137-5.894 13.451-5.894 10.296 0 18.636 8.377 18.636 18.718s-8.34 18.717-18.636 18.717c-8.359 0-15.167-5.615-17.529-13.232-6.108-2.335-12.363-5.485-18.802-8.747-14.097-7.153-30.095-15.27-46.702-15.27-15.96 0-25.924 7.431-31.607 13.714.221 1.593.479 3.169.479 4.818 0 18.551-14.982 33.599-33.453 33.599-18.47 0-33.453-15.048-33.453-33.599 0-1.649.259-3.243.48-4.837-5.701-6.301-15.665-13.695-31.608-13.695-16.606 0-32.604 8.135-46.719 15.289-6.422 3.261-12.677 6.412-18.784 8.747-2.362 7.617-9.171 13.232-17.529 13.232-10.296 0-18.637-8.395-18.637-18.736s8.341-18.718 18.637-18.718c5.314 0 10.056 2.317 13.451 5.894 4.558-1.909 9.466-4.374 14.54-6.968 15.942-8.099 34.025-17.272 55.041-17.272 18.378 0 31.184 7.023 39.875 14.584 3.893-4.318 8.875-7.561 14.539-9.377-6.882-3.706-11.716-10.749-11.716-19.125 0-12.139 21.883-80.6713 21.883-80.6713z" fill-opacity=".15"/><path d="m745.383-9.00036s-22.703 1.94743-37.743 10.05972c0 0 59.82-.32257 87.662 23.02264 0 0-67.706-20.76457-146.622 30.8005 0 0 125.511-24.0024 185.013 26.9175 0 0-19.202-35.4719-59.585-43.1063 0 0 45.947-1.8279 61.683 5.8065 0 0-13.591-29.2234-28.997-36.18875v-20.83195c0-4.2183-23.009-25.671-61.411-29.291z" fill-opacity=".4"/><path d="m735.161 84.1516s9.682 8.429 13.781 16.2184c0 0-8.851 8.731-17.309 13.03 0 0 25.625 8.054 32.372 17.582-13.661-4.287-36.993-2.681-42.613 8.9 15.599-1.678 25.15 2.343 27.158 8.309 0 0-3.708 5.334-15.064 7.704-12.094 2.525-15.182 7.543-15.182 14.552 0 7.008 9.183 13.416 25.862 12.897 16.656-.532 62.084-7.391 65.517-93.1786-3.433-8.0668-44.929-24.5384-74.629-24.3573z" fill-opacity=".3"/><path d="m815.313 179.089c20.393-31.677 31.551-59.278 33.473-82.8024 30.191 33.4874 28.377 72.6954 23.247 102.7004-3.46-9.655-7.922-19.587-13.388-29.795 3.611 46.263-10.111 71.31-41.165 75.141-3.633-21.37-4.355-43.118-2.167-65.244z" fill-opacity=".21"/><path d="m447.155-108.237c-5.667 8.701-13.974 32.8927-24.92 72.5755-26.13 29.84654-51.656 71.5015-76.577 124.9648-12.078 4.0741-24.897 9.7022-38.455 16.8877 35.463-66.7599 70.114-116.6898 103.952-149.7851 7.387-24.5048 19.387-46.0523 36-64.6429z" fill-opacity=".21"/><path d="m795.411 208.129c-3.956 71.936 11.388 112.815 46.031 122.64 51.965 14.736 144.353 16.694 138.441 128.278 4.696 14.773 8.987 28.813 12.873 42.12-15.23 16.106-31.754 30.975-49.401 44.446-17.276-41.682-43.515-67.891-73.873-86.566-119.643-74.392-144.333-158.032-74.071-250.918z" fill-opacity=".21"/><path d="m490.282 437.061c62.65 156.987 162.939 56.399 240.412 93.172 35.424 16.814 54.747 47.681 57.971 92.6-30.203 7.019-61.674 10.725-94.009 10.725-62.699 0-122.145-13.933-175.416-38.873-.198-47.262-9.853-99.8-28.958-157.624z" fill-opacity=".21"/><path d="m609.129 12.5495c16.252-4.48154 29.534-14.60107 39.846-30.3586-.653 9.38155-3.007 17.456981-7.062 24.22629 46.971-8.43311 83.424-36.84069 109.36-85.22279-47.823-25.9554-97.12-8.2493-123.544 24.0397-17.616 21.526-23.816 43.9645-18.6 67.3154z" fill-opacity=".21"/></g></g></g></svg>

<svg width="1440" height="463" viewBox="0 0 1440 463" fill="none" xmlns="http://www.w3.org/2000/svg">
<rect width="1440" height="463" fill="url(#paint0_linear)"/>
<mask id="mask0" mask-type="alpha" maskUnits="userSpaceOnUse" x="0" y="0" width="1440" height="463">
<rect width="1440" height="463" fill="url(#paint1_linear)"/>
</mask>
<g mask="url(#mask0)">
<g opacity="0.7">
<path d="M465.356 538.105L465.71 539.727C467.366 547.514 468.747 554.991 469.852 562.16C427.801 535.011 391.081 500.379 361.588 460.162C368.74 459.449 375.231 458.425 381.071 457.091C404.918 488.101 433.351 515.438 465.356 538.105ZM692.193 -186.744C918.085 -186.744 1101.23 -4.4781 1101.23 220.384C1101.23 310.588 1071.76 393.937 1021.88 461.415L1014.26 442.164C1058.12 379.212 1083.82 302.783 1083.82 220.384C1083.82 5.16449 908.495 -169.327 692.193 -169.327C644.584 -169.327 598.961 -160.874 556.755 -145.393L537.511 -156.626C585.23 -176.042 637.456 -186.744 692.193 -186.744Z" fill="url(#paint2_linear)" fill-opacity="0.21"/>
<path d="M333.217 207.014L389.31 356.322C405.263 359.066 415.083 362.807 415.083 366.931L415.083 366.982C415.491 368.792 415.458 370.775 414.985 372.93L415.083 372.932L414.77 373.81C414.337 375.421 413.668 377.124 412.763 378.919C397.901 414.015 365.033 438.777 324.582 438.777C284.726 438.777 250.7 414.737 235.337 380.462C234.021 377.993 233.099 375.712 232.567 373.616C232.487 373.392 232.405 373.162 232.323 372.932L232.405 372.929C231.988 371.007 231.913 369.247 232.179 367.648L232.323 366.931L232.34 366.638C232.811 362.471 243.308 358.714 259.976 356.008L315.947 207.014C318.64 199.786 330.505 199.786 333.217 207.014ZM629.114 206.995L685.194 356.269C700.403 358.859 710.115 362.351 711.182 366.219L711.081 366.017L711.311 366.504C712.085 368.354 712.169 370.489 711.562 372.91L711.563 372.914C711.242 374.178 710.744 375.503 710.063 376.903C695.579 413.07 661.693 438.759 620.479 438.759C579.708 438.759 545.039 413.603 530.206 378.069C529.323 376.33 528.62 374.66 528.261 373.094L528.227 372.933C528.225 372.927 528.222 372.92 528.22 372.914L528.223 372.91L528.151 372.509C527.938 371.094 528.028 369.324 528.423 367.198L528.54 366.607L528.557 366.504L528.594 366.312C529.554 362.303 539.802 358.692 555.847 356.062L611.843 206.995C614.537 199.768 626.402 199.768 629.114 206.995ZM528.6 366.312L528.557 366.504H528.561L528.6 366.312ZM324.582 236.535L280.646 353.485C293.475 352.34 308.135 351.691 323.703 351.691L325.46 351.694C341.115 351.743 355.807 352.449 368.587 353.653L324.582 236.535ZM620.479 236.535L576.529 353.513C589.433 352.351 604.204 351.691 619.9 351.691L621.657 351.694C637.184 351.742 651.765 352.437 664.472 353.623L620.479 236.535ZM473.827 33.8257C473.827 33.8257 495.711 102.358 495.711 114.497C495.711 122.855 490.877 129.916 483.994 133.622C489.659 135.457 494.641 138.681 498.534 142.999C507.225 135.438 520.03 128.415 538.408 128.415C559.425 128.415 577.489 137.588 593.431 145.687C598.506 148.262 603.432 150.727 607.99 152.655C611.385 149.059 616.127 146.761 621.441 146.761C631.737 146.761 640.077 155.138 640.077 165.479C640.077 175.82 631.737 184.196 621.441 184.196C613.082 184.196 606.274 178.581 603.912 170.964C597.804 168.629 591.549 165.479 585.11 162.217C571.013 155.064 555.015 146.947 538.408 146.947C522.448 146.947 512.484 154.378 506.801 160.661C507.022 162.254 507.28 163.83 507.28 165.479C507.28 184.03 492.298 199.078 473.827 199.078C455.357 199.078 440.374 184.03 440.374 165.479C440.374 163.83 440.633 162.236 440.854 160.642C435.153 154.341 425.189 146.947 409.246 146.947C392.64 146.947 376.642 155.082 362.527 162.236C356.105 165.497 349.85 168.648 343.743 170.983C341.381 178.6 334.572 184.215 326.214 184.215C315.918 184.215 307.577 175.82 307.577 165.479C307.577 155.138 315.918 146.761 326.214 146.761C331.528 146.761 336.27 149.078 339.665 152.655C344.223 150.746 349.131 148.281 354.205 145.687C370.147 137.588 388.23 128.415 409.246 128.415C427.624 128.415 440.43 135.438 449.121 142.999C453.014 138.681 457.996 135.438 463.66 133.622C456.778 129.916 451.944 122.873 451.944 114.497C451.944 102.358 473.827 33.8257 473.827 33.8257Z" fill="white" fill-opacity="0.15"/>
<path d="M745.383 -9.00036C745.383 -9.00036 722.68 -7.05293 707.64 1.05936C707.64 1.05936 767.46 0.73679 795.302 24.082C795.302 24.082 727.596 3.31743 648.68 54.8825C648.68 54.8825 774.191 30.8801 833.693 81.8C833.693 81.8 814.491 46.3281 774.108 38.6937C774.108 38.6937 820.055 36.8658 835.791 44.5002C835.791 44.5002 822.2 15.2768 806.794 8.31145V-12.5205C806.794 -16.7388 783.785 -38.1915 745.383 -41.8115V-9.00036Z" fill="white" fill-opacity="0.4"/>
<path d="M735.161 84.1516C735.161 84.1516 744.843 92.5806 748.942 100.37C748.942 100.37 740.091 109.101 731.633 113.4C731.633 113.4 757.258 121.454 764.005 130.982C750.344 126.695 727.012 128.301 721.392 139.882C736.991 138.204 746.542 142.225 748.55 148.191C748.55 148.191 744.842 153.525 733.486 155.895C721.392 158.42 718.304 163.438 718.304 170.447C718.304 177.455 727.487 183.863 744.166 183.344C760.822 182.812 806.25 175.953 809.683 90.1654C806.25 82.0986 764.754 65.627 735.054 65.8081L735.161 84.1516Z" fill="white" fill-opacity="0.3"/>
<path d="M815.313 179.089C835.706 147.412 846.864 119.811 848.786 96.2866C878.977 129.774 877.163 168.982 872.033 198.987C868.573 189.332 864.111 179.4 858.645 169.192C862.256 215.455 848.534 240.502 817.48 244.333C813.847 222.963 813.125 201.215 815.313 179.089Z" fill="white" fill-opacity="0.21"/>
<path d="M447.155 -108.237C441.488 -99.536 433.181 -75.3443 422.235 -35.6615C396.105 -5.81496 370.579 35.84 345.658 89.3033C333.58 93.3774 320.761 99.0055 307.203 106.191C342.666 39.4311 377.317 -10.4988 411.155 -43.5941C418.542 -68.0989 430.542 -89.6464 447.155 -108.237Z" fill="white" fill-opacity="0.21"/>
<path d="M795.411 208.129C791.455 280.065 806.799 320.944 841.442 330.769C893.407 345.505 985.795 347.463 979.883 459.047C984.579 473.82 988.87 487.86 992.756 501.167C977.526 517.273 961.002 532.142 943.355 545.613C926.079 503.931 899.84 477.722 869.482 459.047C749.839 384.655 725.149 301.015 795.411 208.129Z" fill="white" fill-opacity="0.21"/>
<path d="M490.282 437.061C552.932 594.048 653.221 493.46 730.694 530.233C766.118 547.047 785.441 577.914 788.665 622.833C758.462 629.852 726.991 633.558 694.656 633.558C631.957 633.558 572.511 619.625 519.24 594.685C519.042 547.423 509.387 494.885 490.282 437.061Z" fill="white" fill-opacity="0.21"/>
<path d="M609.129 12.5495C625.381 8.06796 638.663 -2.05157 648.975 -17.8091C648.322 -8.42755 645.968 -0.352119 641.913 6.41719C688.884 -2.01592 725.337 -30.4235 751.273 -78.8056C703.45 -104.761 654.153 -87.0549 627.729 -54.7659C610.113 -33.2399 603.913 -10.8014 609.129 12.5495Z" fill="white" fill-opacity="0.21"/>
</g>
</g>
<defs>
<linearGradient id="paint0_linear" x1="1440" y1="76.1899" x2="979.358" y2="915.198" gradientUnits="userSpaceOnUse">
<stop stop-color="#FFB36D"/>
<stop offset="1" stop-color="#FF8888"/>
</linearGradient>
<linearGradient id="paint1_linear" x1="1440" y1="76.1899" x2="979.358" y2="915.198" gradientUnits="userSpaceOnUse">
<stop stop-color="#FFB36D"/>
<stop offset="1" stop-color="#FF8888"/>
</linearGradient>
<linearGradient id="paint2_linear" x1="731.407" y1="142" x2="731.407" y2="562.16" gradientUnits="userSpaceOnUse">
<stop stop-color="white"/>
<stop offset="1" stop-color="white" stop-opacity="0"/>
</linearGradient>
</defs>
</svg>
